packages/flame/svg/Icons/icon-receipt-printer.svg

<?xml version="1.0" encoding="UTF-8"?>
<svg width="16px" height="16px" viewBox="0 0 16 16" version="1.1" xmlns="http://www.w3.org/2000/svg" xmlns:xlink="http://www.w3.org/1999/xlink">
    <!-- Generator: sketchtool 64 (101010) - https://sketch.com -->
    <title>C43BA628-D7C8-43D8-A582-41DB3076E724@1.00x</title>
    <desc>Created with sketchtool.</desc>
    <g id="Symbols" stroke="none" stroke-width="1" fill="none" fill-rule="evenodd">
        <g id="receipt-printer" fill="#232A3B">
            <g transform="translate(0.000000, 0.000000)">
                <path d="M2,4 L2,7 L14,7 L14,4 L15,4 C15.5522847,4 16,4.44771525 16,5 L16,14 C16,15.1045695 15.1045695,16 14,16 L2,16 C0.8954305,16 1.3527075e-16,15.1045695 0,14 L0,5 C-6.76353751e-17,4.44771525 0.44771525,4 1,4 L2,4 Z M13,9 C12.4477153,9 12,9.44771525 12,10 C12,10.5522847 12.4477153,11 13,11 C13.5522847,11 14,10.5522847 14,10 C14,9.44771525 13.5522847,9 13,9 Z" id="base-1"></path>
                <path d="M12,0 C12.5522847,-1.01453063e-16 13,0.44771525 13,1 L13,6 L3,6 L3,1 C3,0.44771525 3.44771525,1.01453063e-16 4,0 L12,0 Z M10.5,4 L5.5,4 C5.22385763,4 5,4.22385763 5,4.5 C5,4.77614237 5.22385763,5 5.5,5 L5.5,5 L10.5,5 C10.7761424,5 11,4.77614237 11,4.5 C11,4.22385763 10.7761424,4 10.5,4 L10.5,4 Z M10.5,2 L5.5,2 C5.22385763,2 5,2.22385763 5,2.5 C5,2.77614237 5.22385763,3 5.5,3 L5.5,3 L10.5,3 C10.7761424,3 11,2.77614237 11,2.5 C11,2.22385763 10.7761424,2 10.5,2 L10.5,2 Z" id="base-2" opacity="0.700000048"></path>
            </g>
        </g>
    </g>
</svg>

<svg xmlns="http://www.w3.org/2000/svg" viewBox="0 0 16 16"><g id="receipt-printer"><path id="base-1" d="M2 4v3h12V4h1a1 1 0 0 1 1 1v9a2 2 0 0 1-2 2H2a2 2 0 0 1-2-2V5a1 1 0 0 1 1-1h1zm11 5a1 1 0 1 0 0 2 1 1 0 0 0 0-2z"/><path id="base-2" d="M12 0a1 1 0 0 1 1 1v5H3V1a1 1 0 0 1 1-1h8zm-1.5 4h-5a.5.5 0 0 0 0 1h5a.5.5 0 1 0 0-1zm0-2h-5a.5.5 0 0 0 0 1h5a.5.5 0 1 0 0-1z" opacity=".7"/></g></svg>
